dist/files/common/testimonial-icon.svg

<svg width="96" height="96" viewBox="0 0 96 96" fill="none" xmlns="http://www.w3.org/2000/svg">
<g opacity="0.9">
<path fill-rule="evenodd" clip-rule="evenodd" d="M59.1081 45.0799C59.2715 45.0602 59.4293 45.0082 59.5724 44.9269C59.7155 44.8456 59.8409 44.7366 59.9415 44.6063C60.042 44.4759 60.1156 44.3269 60.1579 44.1679C60.2003 44.0089 60.2105 43.843 60.1881 43.6799C60.1777 41.8127 60.7358 39.9865 61.7881 38.4439C62.7881 36.9399 63.9081 35.5279 65.1481 34.2079C66.9428 32.1306 68.8468 30.1586 70.8601 28.2919C72.0868 28.5639 73.3268 28.7239 74.5801 28.7719C74.8359 28.7229 75.0667 28.5863 75.2326 28.3855C75.3986 28.1848 75.4894 27.9324 75.4894 27.6719C75.4894 27.4115 75.3986 27.1591 75.2326 26.9584C75.0667 26.7576 74.8359 26.6209 74.5801 26.5719C67.4601 25.8519 64.3441 21.2199 64.7441 16.6239C65.0567 14.0926 66.3399 11.7814 68.3233 10.1778C70.3068 8.57423 72.8354 7.80343 75.3761 8.02794C77.6685 7.9849 79.8872 8.83826 81.5599 10.4064C83.2326 11.9745 84.2272 14.1335 84.3321 16.4239C84.5636 17.6001 84.5609 18.8104 84.3243 19.9856C84.0876 21.1607 83.6216 22.2777 82.9529 23.2726C82.2842 24.2675 81.4259 25.1208 80.4271 25.7837C79.4283 26.4466 78.3086 26.9061 77.1321 27.1359C76.9693 27.157 76.8122 27.2098 76.6698 27.2916C76.5274 27.3733 76.4024 27.4823 76.3021 27.6123C76.2019 27.7423 76.1282 27.8908 76.0853 28.0492C76.0424 28.2077 76.0311 28.3731 76.0521 28.5359C76.0731 28.6988 76.126 28.8559 76.2077 28.9983C76.2894 29.1407 76.3984 29.2656 76.5284 29.3659C76.6584 29.4662 76.8069 29.5399 76.9654 29.5828C77.1239 29.6257 77.2893 29.637 77.4521 29.6159C78.8521 29.4879 80.2081 29.0959 81.4521 28.4559C82.4441 29.5653 83.3374 30.7506 84.1321 32.0119C84.6121 32.7319 85.0521 33.4519 85.4521 34.1719C85.8921 34.9279 86.3321 35.6879 86.7281 36.4479C87.6988 38.3386 88.5121 40.2973 89.1681 42.3239C89.1966 42.483 89.257 42.6347 89.3456 42.7699C89.4342 42.9051 89.5491 43.021 89.6836 43.1106C89.8181 43.2003 89.9693 43.2619 90.1282 43.2916C90.287 43.3214 90.4503 43.3188 90.6081 43.2839C90.9309 43.2246 91.217 43.0397 91.4037 42.7698C91.5904 42.4998 91.6624 42.1669 91.6041 41.8439C91.4706 39.4971 91.0543 37.175 90.3641 34.9279C90.0821 33.9162 89.6933 32.9374 89.2041 32.0079C88.6763 31.0975 88.06 30.2414 87.3641 29.4519C86.3479 28.4226 85.2086 27.5225 83.9721 26.7719C85.3829 25.3811 86.4717 23.698 87.1621 21.8411C87.8525 19.9842 88.1276 17.9986 87.9681 16.0239C87.953 14.3738 87.6116 12.743 86.9634 11.2255C86.3153 9.70794 85.3733 8.33364 84.1917 7.18177C83.01 6.02989 81.6122 5.12321 80.0786 4.51397C78.545 3.90473 76.906 3.60496 75.2561 3.63194C71.7216 3.52212 68.2843 4.79858 65.6782 7.1887C63.0721 9.57883 61.5037 12.8932 61.3081 16.4239C61.2444 18.6836 61.8423 20.9126 63.0284 22.837C64.2144 24.7614 65.9369 26.2973 67.9841 27.2559C66.2801 28.1406 64.6717 29.1982 63.1841 30.4119C61.7665 31.6199 60.5406 33.036 59.5481 34.6119C58.6268 35.9731 57.9891 37.5058 57.6729 39.1187C57.3568 40.7317 57.3688 42.3917 57.7081 43.9999C57.7223 44.1656 57.7707 44.3265 57.8504 44.4724C57.93 44.6183 58.0391 44.7461 58.1708 44.8476C58.3024 44.9492 58.4537 45.0222 58.615 45.0622C58.7764 45.1022 58.9443 45.1083 59.1081 45.0799ZM33.6881 79.2119C33.209 78.3207 32.6465 77.4769 32.0081 76.6919C31.0035 75.6151 29.8617 74.6751 28.6121 73.896C30.0156 72.5156 31.1007 70.8454 31.7916 69.002C32.4825 67.1587 32.7625 65.1867 32.6121 63.2239C32.6071 61.5554 32.2673 59.9049 31.6127 58.3701C30.9581 56.8353 30.0022 55.4475 28.8015 54.289C27.6008 53.1304 26.1797 52.2246 24.6225 51.6253C23.0654 51.026 21.4037 50.7453 19.7361 50.7999C16.2042 50.6721 12.7633 51.9366 10.1545 54.3209C7.54574 56.7053 5.97771 60.0188 5.7881 63.5479C5.72057 65.8028 6.31197 68.0284 7.48989 69.9523C8.66781 71.8762 10.3811 73.4148 12.4201 74.3799C10.7173 75.2661 9.11022 76.325 7.6241 77.5399C6.22104 78.7496 5.0087 80.1642 4.0281 81.7359C3.10094 83.1027 2.45996 84.6429 2.14374 86.2638C1.82752 87.8848 1.84261 89.553 2.1881 91.1679C2.20738 91.3301 2.25955 91.4865 2.34139 91.6278C2.42324 91.7691 2.53305 91.8921 2.66411 91.9895C2.79516 92.0868 2.9447 92.1564 3.10358 92.194C3.26245 92.2316 3.42732 92.2363 3.5881 92.2079C3.75149 92.1882 3.90933 92.1362 4.05241 92.0549C4.19548 91.9736 4.32094 91.8646 4.42147 91.7343C4.52199 91.604 4.59557 91.4549 4.63791 91.2959C4.68026 91.1369 4.69052 90.971 4.6681 90.8079C4.65771 88.9407 5.21576 87.1145 6.2681 85.5719C7.2681 84.0653 8.38676 82.6519 9.6241 81.3319C11.4294 79.2653 13.3348 77.2946 15.3401 75.4199C16.5588 75.7293 17.7988 75.8893 19.0601 75.8999C19.3159 75.8509 19.5467 75.7143 19.7126 75.5135C19.8786 75.3128 19.9694 75.0604 19.9694 74.7999C19.9694 74.5395 19.8786 74.2871 19.7126 74.0864C19.5467 73.8856 19.3159 73.7489 19.0601 73.6999C12.0201 72.9799 8.9841 68.3439 9.3841 63.7479C9.65916 61.1883 10.9264 58.8383 12.914 57.2022C14.9016 55.566 17.4513 54.774 20.0161 54.9959C22.3063 54.9971 24.5058 55.8911 26.1474 57.4879C27.7891 59.0847 28.7436 61.2587 28.8081 63.5479C29.2768 65.9165 28.7871 68.3743 27.4464 70.3823C26.1057 72.3904 24.0234 73.7849 21.6561 74.2599C21.4929 74.2773 21.3347 74.3269 21.1908 74.4059C21.0468 74.4849 20.92 74.5917 20.8177 74.7201C20.7154 74.8484 20.6396 74.9959 20.5947 75.1538C20.5497 75.3117 20.5366 75.4769 20.5561 75.6399C20.5735 75.8032 20.6231 75.9614 20.7021 76.1053C20.7811 76.2492 20.8878 76.376 21.0162 76.4783C21.1446 76.5807 21.292 76.6565 21.4499 76.7014C21.6078 76.7463 21.7731 76.7594 21.9361 76.7399C23.3281 76.6159 24.6881 76.2199 25.9321 75.5799C26.9214 76.6893 27.8148 77.8759 28.6121 79.1399C29.0894 79.8466 29.5281 80.5786 29.9281 81.3359C30.3681 82.0559 30.8081 82.8159 31.2081 83.5759C32.1788 85.4693 32.9921 87.4266 33.6481 89.4479C33.7678 89.6966 33.967 89.8983 34.2142 90.021C34.4615 90.1437 34.7426 90.1804 35.013 90.1253C35.2834 90.0702 35.5278 89.9264 35.7073 89.7168C35.8868 89.5072 35.9913 89.2436 36.0041 88.9679C35.8703 86.6225 35.454 84.3017 34.7641 82.0559C34.495 81.0772 34.1334 80.1262 33.6841 79.216M7.1921 41.0799C11.9374 44.4774 17.662 46.233 23.4961 46.0799C31.6965 45.844 39.8773 45.1496 48.0001 43.9999C48.1492 43.9953 48.2958 43.9599 48.4305 43.8959C48.5653 43.8318 48.6853 43.7405 48.783 43.6278C48.8807 43.515 48.954 43.3833 48.9982 43.2408C49.0425 43.0983 49.0567 42.9482 49.0401 42.7999C49.03 42.658 48.9919 42.5194 48.928 42.3922C48.8642 42.265 48.7758 42.1517 48.668 42.0588C48.5602 41.9658 48.4351 41.8951 48.2999 41.8507C48.1647 41.8063 48.022 41.789 47.8801 41.7999C39.9121 42.6933 31.9174 43.1599 23.8961 43.1999C18.8107 43.1697 13.873 41.4864 9.8281 38.4039C7.90022 36.5514 6.38688 34.3113 5.38783 31.8312C4.38878 29.3512 3.92672 26.6876 4.0321 24.0159C3.77821 18.6899 5.51807 13.4603 8.9121 9.34794C11.2816 6.99928 14.4159 5.57978 17.7441 5.34794C21.2349 4.94396 24.771 5.43967 28.0161 6.78794C29.6189 7.44843 31.0596 8.44836 32.239 9.71891C33.4184 10.9895 34.3085 12.5005 34.8481 14.1479C36.7681 19.6599 36.2881 26.3359 38.5281 31.6919C39.4481 33.8679 40.9241 35.7719 42.8041 37.2079C45.416 39.1875 48.2614 40.8385 51.2761 42.1239C51.4229 42.1991 51.5831 42.2443 51.7476 42.2568C51.912 42.2693 52.0773 42.2489 52.2337 42.1968C52.3901 42.1446 52.5346 42.0618 52.6587 41.9531C52.7827 41.8445 52.8838 41.7122 52.9561 41.5639C53.055 41.2791 53.0534 40.9689 52.9515 40.6851C52.8496 40.4013 52.6536 40.1609 52.3961 40.0039C49.5495 38.7291 46.8651 37.119 44.4001 35.2079C42.9423 34.0108 41.8032 32.4718 41.0841 30.7279C38.8041 24.0159 40.0041 16.0239 36.8441 9.98794C35.198 6.98901 32.5979 4.62542 29.4561 3.27194C25.6878 1.62128 21.5681 0.933979 17.4681 1.27194C13.1005 1.55378 8.97634 3.38326 5.8361 6.43194C1.76963 11.3605 -0.300046 17.6352 0.0360978 24.0159C-0.0355979 27.2038 0.564519 30.371 1.79742 33.3116C3.03032 36.2522 4.86839 38.8964 7.1921 41.0799ZM90.1641 55.1919C87.0753 52.1419 82.9883 50.3107 78.6561 50.0359C74.554 49.6801 70.4287 50.3681 66.6641 52.0359C63.5159 53.3607 60.9091 55.7124 59.2681 58.7079C55.9521 64.7879 57.3081 72.8999 54.8721 79.3719C54.1395 81.1742 52.9564 82.7581 51.4361 83.9719C48.9744 85.8967 46.2913 87.5203 43.4441 88.8079C43.1522 88.9618 42.931 89.2225 42.8267 89.5355C42.7223 89.8485 42.7429 90.1897 42.8841 90.4879C43.0456 90.7722 43.3068 90.9864 43.6171 91.0892C43.9275 91.1919 44.2649 91.1758 44.5641 91.0439C47.5738 89.732 50.4176 88.0685 53.0361 86.0879C54.9041 84.6559 56.3761 82.7679 57.3121 80.6119C59.5521 75.2159 59.0721 68.6199 60.9921 63.0239C61.5296 61.3327 62.4355 59.7818 63.6446 58.4828C64.8536 57.1838 66.3357 56.1692 67.9841 55.5119C71.1961 54.1976 74.6882 53.716 78.1361 54.1119C81.4643 54.3438 84.5986 55.7633 86.9681 58.1119C90.3816 62.1887 92.1617 67.3865 91.9641 72.6999C92.1021 75.3188 91.6976 77.938 90.7759 80.3932C89.8543 82.8484 88.4353 85.0868 86.6081 86.9679C82.5595 90.0387 77.6214 91.7081 72.5401 91.7239C64.5265 91.7196 56.5198 91.2522 48.5601 90.3239C48.3981 90.2929 48.2313 90.298 48.0715 90.339C47.9117 90.3799 47.7629 90.4556 47.6358 90.5607C47.5087 90.6658 47.4063 90.7977 47.3361 90.9469C47.2658 91.0961 47.2294 91.259 47.2294 91.424C47.2294 91.5889 47.2658 91.7518 47.3361 91.901C47.4063 92.0502 47.5087 92.1821 47.6358 92.2872C47.7629 92.3923 47.9117 92.468 48.0715 92.5089C48.2313 92.5498 48.3981 92.555 48.5601 92.5239C56.6381 93.736 64.7774 94.4971 72.9401 94.8039C78.7756 94.9578 84.5017 93.2022 89.2481 89.8039C91.486 87.5867 93.2383 84.9283 94.3938 81.9976C95.5493 79.0668 96.0827 75.9278 95.9601 72.7799C96.3142 66.3963 94.2441 60.1144 90.1641 55.1919Z" fill="#B72B00"/>
<path fill-rule="evenodd" clip-rule="evenodd" d="M17.94 18.54H27.096C27.4271 18.5862 27.7631 18.5006 28.0317 18.3017C28.3003 18.1028 28.4802 17.8064 28.5326 17.4763C28.585 17.1461 28.5057 16.8086 28.3119 16.5363C28.1181 16.264 27.8251 16.0786 27.496 16.02C25.816 15.5 24.176 14.984 22.456 14.624C21.7184 14.4687 20.9692 14.3751 20.216 14.344C19.4586 14.2839 18.6975 14.2839 17.94 14.344C16.1694 14.584 14.4374 14.9973 12.744 15.584C12.5974 15.6239 12.4609 15.6944 12.3434 15.7907C12.2259 15.887 12.13 16.0071 12.062 16.143C11.9941 16.2789 11.9556 16.4276 11.949 16.5794C11.9425 16.7312 11.968 16.8827 12.024 17.024C12.0639 17.3145 12.2161 17.5777 12.448 17.7572C12.6798 17.9367 12.9728 18.0181 13.264 17.984C14.744 18.024 16.304 18.384 17.944 18.544M68.904 67.384H78.056C79.696 67.384 81.252 66.864 82.972 66.784C83.1266 66.8259 83.2883 66.8341 83.4464 66.8082C83.6044 66.7822 83.755 66.7227 83.8881 66.6336C84.0211 66.5446 84.1335 66.428 84.2177 66.2918C84.3019 66.1555 84.3559 66.0028 84.376 65.844C84.3961 65.6853 84.3818 65.5241 84.3343 65.3713C84.2868 65.2186 84.2071 65.0777 84.1006 64.9583C83.9941 64.839 83.8633 64.7438 83.7169 64.6792C83.5705 64.6146 83.412 64.5822 83.252 64.584C81.5651 63.9958 79.8229 63.5803 78.052 63.344C77.2946 63.2839 76.5335 63.2839 75.776 63.344C75.0247 63.3951 74.2768 63.4886 73.536 63.624C71.8294 64.008 70.152 64.488 68.504 65.064C68.1781 65.1228 67.8876 65.3057 67.6936 65.5742C67.4997 65.8428 67.4174 66.176 67.464 66.504C67.5487 66.8053 67.7442 67.0635 68.0113 67.2267C68.2783 67.39 68.5973 67.4461 68.904 67.384ZM10.988 29.612C11.0208 29.752 11.0812 29.884 11.1656 30.0003C11.2501 30.1167 11.3569 30.215 11.4799 30.2895C11.6028 30.364 11.7394 30.4132 11.8816 30.4342C12.0238 30.4553 12.1688 30.4477 12.308 30.412H20.34L22.74 30.172L28.452 29.452C28.6149 29.4572 28.7772 29.4304 28.9296 29.3729C29.0821 29.3154 29.2217 29.2285 29.3406 29.1171C29.4594 29.0057 29.5552 28.8719 29.6223 28.7235C29.6895 28.575 29.7268 28.4148 29.732 28.252C29.7373 28.0891 29.7104 27.9269 29.653 27.7744C29.5955 27.622 29.5086 27.4823 29.3971 27.3635C29.2857 27.2446 29.152 27.1489 29.0035 27.0817C28.8551 27.0145 28.6949 26.9772 28.532 26.972C26.5854 26.6173 24.6267 26.364 22.656 26.212C21.8049 26.1575 20.9512 26.1575 20.1 26.212C19.2517 26.2374 18.4078 26.3446 17.58 26.532C15.6773 26.9396 13.8181 27.529 12.028 28.292C11.8693 28.3007 11.7143 28.3432 11.5732 28.4165C11.4322 28.4898 11.3084 28.5923 11.21 28.7172C11.1116 28.842 11.0409 28.9864 11.0027 29.1407C10.9644 29.295 10.9594 29.4556 10.988 29.612ZM66.264 76.936C66.2691 77.1024 66.3075 77.2661 66.3772 77.4173C66.4468 77.5685 66.5462 77.7042 66.6694 77.8161C66.7925 77.9281 66.937 78.0141 67.0942 78.0691C67.2513 78.1241 67.4179 78.1468 67.584 78.136L73.26 78.856L75.66 79.096H83.692C83.9051 79.1414 84.1267 79.1237 84.3298 79.045C84.533 78.9664 84.7088 78.8302 84.8357 78.6532C84.9626 78.4762 85.0352 78.266 85.0445 78.0484C85.0538 77.8308 84.9994 77.6152 84.888 77.428C84.8133 77.3048 84.7146 77.1977 84.5978 77.1132C84.481 77.0287 84.3485 76.9685 84.208 76.936C82.3565 76.1333 80.4297 75.5169 78.456 75.096C77.6161 75.096 76.776 74.856 75.896 74.776C75.0161 74.696 74.216 74.776 73.376 74.776C71.4054 74.9227 69.448 75.176 67.504 75.536C67.3287 75.5407 67.1563 75.5814 66.9974 75.6555C66.8384 75.7296 66.6964 75.8356 66.5802 75.9668C66.4639 76.0981 66.3758 76.2519 66.3215 76.4186C66.2671 76.5853 66.2475 76.7614 66.264 76.936Z" fill="#B72B00"/>
</g>
</svg>

<svg xmlns="http://www.w3.org/2000/svg" fill="none" viewBox="0 0 96 96"><g fill="#b72b00" fill-rule="evenodd" clip-rule="evenodd" opacity=".9"><path d="M59.108 45.08a1.24 1.24 0 0 0 1.08-1.4 9.2 9.2 0 0 1 1.6-5.236q1.5-2.256 3.36-4.236a74 74 0 0 1 5.712-5.916q1.84.408 3.72.48a1.12 1.12 0 0 0 0-2.2c-7.12-.72-10.236-5.352-9.836-9.948a9.84 9.84 0 0 1 10.632-8.596 8.8 8.8 0 0 1 8.956 8.396 9.12 9.12 0 0 1-7.2 10.712 1.25 1.25 0 0 0 .32 2.48c1.4-.128 2.756-.52 4-1.16a26.6 26.6 0 0 1 2.68 3.556q.72 1.08 1.32 2.16c.44.756.88 1.516 1.276 2.276q1.456 2.836 2.44 5.876a1.2 1.2 0 0 0 1.44.96 1.24 1.24 0 0 0 .996-1.44 29.2 29.2 0 0 0-1.24-6.916 14.8 14.8 0 0 0-1.16-2.92 16 16 0 0 0-1.84-2.556 17.6 17.6 0 0 0-3.392-2.68 13.56 13.56 0 0 0 3.996-10.748A12.507 12.507 0 0 0 75.256 3.632a13.55 13.55 0 0 0-13.948 12.792 11.6 11.6 0 0 0 6.676 10.832 28 28 0 0 0-4.8 3.156 18.4 18.4 0 0 0-3.636 4.2A12.24 12.24 0 0 0 57.708 44a1.2 1.2 0 0 0 1.4 1.08m-25.42 34.132a16 16 0 0 0-1.68-2.52 16.8 16.8 0 0 0-3.396-2.796 13.52 13.52 0 0 0 4-10.672A12.467 12.467 0 0 0 19.736 50.8 13.48 13.48 0 0 0 5.788 63.548 11.6 11.6 0 0 0 12.42 74.38a28 28 0 0 0-4.796 3.16 18.4 18.4 0 0 0-3.596 4.196 12.24 12.24 0 0 0-1.84 9.432 1.2 1.2 0 0 0 1.4 1.04 1.24 1.24 0 0 0 1.08-1.4 9.2 9.2 0 0 1 1.6-5.236 32.3 32.3 0 0 1 3.356-4.24 81 81 0 0 1 5.716-5.912q1.829.465 3.72.48a1.12 1.12 0 0 0 0-2.2c-7.04-.72-10.076-5.356-9.676-9.952a9.84 9.84 0 0 1 10.632-8.752 8.8 8.8 0 0 1 8.792 8.552 9.12 9.12 0 0 1-7.152 10.712 1.24 1.24 0 0 0-1.1 1.38 1.24 1.24 0 0 0 1.38 1.1 10.9 10.9 0 0 0 3.996-1.16 27 27 0 0 1 2.68 3.56q.716 1.06 1.316 2.196c.44.72.88 1.48 1.28 2.24a40 40 0 0 1 2.44 5.872 1.24 1.24 0 0 0 2.356-.48 29.2 29.2 0 0 0-1.24-6.912c-.269-.979-.63-1.93-1.08-2.84M7.192 41.08a26.8 26.8 0 0 0 16.304 5c8.2-.236 16.381-.93 24.504-2.08a1.08 1.08 0 0 0 1.04-1.2 1.08 1.08 0 0 0-1.16-1 225 225 0 0 1-23.984 1.4 23.44 23.44 0 0 1-14.068-4.796 18.92 18.92 0 0 1-5.796-14.388 21.44 21.44 0 0 1 4.88-14.668 13.92 13.92 0 0 1 8.832-4 20.6 20.6 0 0 1 10.272 1.44 12 12 0 0 1 6.832 7.36c1.92 5.512 1.44 12.188 3.68 17.544a13.6 13.6 0 0 0 4.276 5.516 40 40 0 0 0 8.472 4.916 1.24 1.24 0 0 0 1.68-.56 1.32 1.32 0 0 0-.56-1.56 39.2 39.2 0 0 1-7.996-4.796 11.44 11.44 0 0 1-3.316-4.48c-2.28-6.712-1.08-14.704-4.24-20.74a15.36 15.36 0 0 0-7.388-6.716 24.8 24.8 0 0 0-11.988-2 18.4 18.4 0 0 0-11.632 5.16 25.52 25.52 0 0 0-5.8 17.584A22.704 22.704 0 0 0 7.192 41.08m82.972 14.112a18 18 0 0 0-11.508-5.156 24.4 24.4 0 0 0-11.992 2 15.12 15.12 0 0 0-7.396 6.672c-3.316 6.08-1.96 14.192-4.396 20.664a11.36 11.36 0 0 1-3.436 4.6 39.2 39.2 0 0 1-7.992 4.836 1.28 1.28 0 0 0-.56 1.68 1.32 1.32 0 0 0 1.68.556 41.6 41.6 0 0 0 8.472-4.956 13.86 13.86 0 0 0 4.276-5.476c2.24-5.396 1.76-11.992 3.68-17.588a12 12 0 0 1 6.992-7.512 20.6 20.6 0 0 1 10.152-1.4 13.92 13.92 0 0 1 8.832 4A21.48 21.48 0 0 1 91.964 72.7a19.04 19.04 0 0 1-5.356 14.268 23.4 23.4 0 0 1-14.068 4.756 208 208 0 0 1-23.98-1.4 1.12 1.12 0 1 0 0 2.2 220 220 0 0 0 24.38 2.28 26.8 26.8 0 0 0 16.308-5A22.72 22.72 0 0 0 95.96 72.78a25.36 25.36 0 0 0-5.796-17.588"/><path d="M17.94 18.54h9.156a1.276 1.276 0 0 0 .4-2.52c-1.68-.52-3.32-1.036-5.04-1.396a13.6 13.6 0 0 0-2.24-.28q-1.137-.09-2.276 0a27 27 0 0 0-5.196 1.24 1.08 1.08 0 0 0-.72 1.44 1.12 1.12 0 0 0 1.24.96c1.48.04 3.04.4 4.68.56m50.96 48.84h9.152c1.64 0 3.196-.52 4.916-.6a1.12 1.12 0 1 0 .28-2.2 26.4 26.4 0 0 0-5.2-1.24c-.757-.06-1.519-.06-2.276 0q-1.128.077-2.24.28a46 46 0 0 0-5.032 1.44 1.28 1.28 0 0 0-1.04 1.44 1.24 1.24 0 0 0 1.44.88M10.988 29.612a1.08 1.08 0 0 0 1.32.8h8.032l2.4-.24 5.712-.72a1.24 1.24 0 0 0 .08-2.48 57 57 0 0 0-5.876-.76 20 20 0 0 0-2.556 0c-.848.025-1.692.133-2.52.32a30.4 30.4 0 0 0-5.552 1.76 1.12 1.12 0 0 0-1.04 1.32m55.276 47.324a1.24 1.24 0 0 0 1.32 1.2l5.676.72 2.4.24h8.032a1.12 1.12 0 0 0 1.196-1.668 1.08 1.08 0 0 0-.68-.492 30.4 30.4 0 0 0-5.752-1.84c-.84 0-1.68-.24-2.56-.32s-1.68 0-2.52 0q-2.956.22-5.872.76a1.28 1.28 0 0 0-1.24 1.4"/></g></svg>
